X: 1
T:The Rocks of Cashel -- Reel
M:2/4
L:1/16
R:reel
O:IRISH.
B:Ryan's Mammoth Collection
N:365
Z:Contributed by Ray Davies,  ray:davies99.freeserve.co.uk
K:C
v((3G,A,B,)|\
CuB,CD EGG2 | uAdd"4"e dcAB | u{d}cBcA GEcA | uGFED E2((3vG,A,B,) |
CuB,CD EGG2 |  Add"4"e dcAB | u{d}cBcA GEcA | GFED C2z2  H|]
vTc2"0"ec gc"0"ec | agfe BcdB | uTc2"0"ec gc"0"ec | agfd cGAB |
vTc2"0"ec gc"0"ec | agfe BcdB | uTc2"0"ec gc"0"ec |\
v(ag)fd uc2  "_D.C." |]
